X:1
T:Come, Ye Sinners, Poor and Wretched
T:Come, Ye Sinners, Poor and Wretched
T:William Owen, 1852
T:Joseph Hart, 1759
T:Public Domain Courtesy of the Cyber Hymnal™
T:Public Domain Courtesy of the Cyber Hymnal™
C:William Owen, 1852
Z:Public Domain
Z:Courtesy of the Cyber Hymnal™
%%score ( 1 2 ) ( 3 4 )
L:1/8
Q:1/4=180
M:3/2
K:Bb
V:1 treble 
V:2 treble 
V:3 bass 
V:4 bass 
V:1
 [B,D]2 [B,D]2 [DG]4 [DA]4 | [DB]2 [DB]2 [GB]4 [^FA]4 | [DB]2 [Fc]2 d4 (c2 B2) | %3
w: 1.~Come, ye sin- ners,|poor and wretch- ed,|Weak and wound- ed, *|
w: 2.~Come, ye need- y,|come, and wel- come;|God’s free boun- ty *|
w: 3.~Come, ye wea- ry,|heav- y la- den,|Bruised and brok- en *|
w: 4.~Lo! th’in- car- nate|God, as- cend- ed,|Pleads the mer- it *|
 [CA]2 [DA]2 [DG]8 | [B,D]2 [B,D]2 [DG]4 [DA]4 | [DB]2 [DB]2 [GB]4 [^FA]4 | %6
w: sick and sore;|Je- sus rea- dy|stands to save you,|
w: glo- ri- fy;|True be- lief and|true re- pent- ance,|
w: by the fall;|If you tar- ry|till you’re bet- ter,|
w: of His blood;|Ven- ture on Him,|ven- ture whol- ly;|
 [DB]2 [Fc]2 d4 (c2 B2) | [CA]2 [DA]2 [DG]8 | [DG]2 [GA]2 [GB]4 [DG]4 | A2 [GB]2 [Gc]4 [^FA]4 | %10
w: Full of pi- ty, *|joined with power;|He is a- ble,|He is a- ble,|
w: Ev- ery grace that *|brings us nigh;|With- out mon- ey,|with- out mon- ey,|
w: You will nev- er *|come at all;|Not the right- eous,|not the right- eous,|
w: Let no o- ther *|trust in- trude;|None but Je- sus,|none but Je- sus,|
 [DB]2 [Fc]2 [Fd]4 ([DB]2 [Fc]2) | (ed) [Fc]2 (dc) [EB]2 (cB) (AG) | [^Fd]8 [DB]2 [=Fc]2 | %13
w: He is a- ble, *|He * is will- * ing, doubt * no *|more; He is|
w: with- out mon- ey, *|Come * to Je- * sus Christ * and *|buy; Come to|
w: not the right- eous, *|Sin- * ners Je- * sus came * to *|call; Sin- ners|
w: none but Je- sus, *|Can * do help- * less sin- * ners *|good; Can do|
 d4 (c2 B2) [A,A]2 [^FA]2 | [DG]12 |] %15
w: will- ing, * doubt no|more.|
w: Je- sus * Christ and|buy.|
w: Je- sus * came to|call.|
w: help- less * sin- ners|good.|
V:2
 x12 | x12 | x4 (F2 D2) E4 | x12 | x12 | x12 | x4 (F2 D2) E4 | x12 | x12 | A2 x10 | x12 | %11
 E2 x D2 x E2 E x3 | x12 | (^F2 D2) E4 x4 | x12 |] %15
V:3
 [G,,G,]2 [G,,G,]2 [B,,G,]4 [D,^F,]4 | G,2 [G,B,]2 [G,D]4 [D,D]4 | %2
 [G,B,]2 [F,A,]2 [B,,B,]4 [C,G,]4 | [D,G,]2 [D,^F,]2 [G,,B,]8 | %4
 [G,,G,]2 [G,,G,]2 [B,,G,]4 [D,^F,]4 | G,2 [G,B,]2 [G,D]4 [D,D]4 | %6
 [G,B,]2 [F,A,]2 [B,,B,]4 [C,G,]4 | [D,G,]2 [D,^F,]2 [G,,B,]8 | [G,B,]2 [G,C]2 [G,D]4 [G,B,]4 | %9
 [^F,D]2 [G,D]2 [C,E]4 [D,D]4 | [G,B,]2 [F,A,]2 B,4 [B,,B,]4 | %11
 [C,G,]2 [F,A,]2 [B,,B,]2 [E,G,]2 [A,,C]2 (CB,) | [D,A,]8 [G,B,]2 [F,A,]2 | %13
 [B,,B,]4 [C,G,]4 [D,G,]2 [D,D]2 | [G,,B,]12 |] %15
V:4
 x12 | G,2 x10 | x12 | x12 | x12 | G,2 x10 | x12 | x12 | x12 | x12 | x12 | x10 C,2 | x12 | x12 | %14
 x12 |] %15

